assets/advantage1.svg

<svg fill="none" xmlns="http://www.w3.org/2000/svg" viewBox="0 0 67 63">
  <path d="m34.4153 62.8511-.0665-2.6576c.8637 0 1.7274-.0664 2.5247-.1993l.2658 2.6576c-.9302.1328-1.8603.1993-2.724.1993Zm-2.7905 0c-.9301-.0665-1.8602-.1329-2.7904-.2658l.3986-2.6575c.8637.1328 1.661.1993 2.5247.2657l-.1329 2.6576Zm8.2384-.598-.5315-2.5911c.7973-.1993 1.661-.3986 2.4583-.5979l.7308 2.5246c-.7973.2658-1.7274.4651-2.6576.6644Zm-13.7528-.2657c-.8637-.1993-1.7938-.4651-2.6575-.7973l.8637-2.5247c.7972.2658 1.5945.5315 2.4582.7309l-.6644 2.5911Zm19.068-1.3288-.9966-2.4582c.7972-.3322 1.5281-.6644 2.3253-1.0631l1.1959 2.3918c-.7972.4651-1.6609.7973-2.5246 1.1295Zm-24.3166-.4651c-.8637-.3986-1.661-.7972-2.4583-1.2623l1.2624-2.3254c.7308.3987 1.528.7973 2.2589 1.1295l-1.063 2.4582Zm29.2995-1.9931-1.3953-2.259c.7309-.465 1.3953-.9301 2.1261-1.4616l1.5945 2.126c-.7972.598-1.5281 1.1295-2.3253 1.5946Zm-34.1496-.6644c-.6644-.4651-1.3952-.9302-1.9931-1.4617l-.1994-.1993 1.661-2.0596.1993.1329c.598.4651 1.1959.9301 1.8603 1.3288l-1.5281 2.2589Zm38.601-2.6576-1.7939-1.9931c.598-.5315 1.2623-1.1295 1.7939-1.7939l1.9267 1.7939c-.598.7308-1.2624 1.3952-1.9267 1.9931Zm3.787-4.0527-2.1261-1.661c.5315-.6644.9966-1.3288 1.4617-2.0596l2.2589 1.4616c-.5315.7973-1.063 1.5281-1.5945 2.259Zm2.9897-4.6508-2.3253-1.2623c.3986-.7308.7308-1.5281 1.063-2.3253l2.4582 1.063c-.3322.8637-.7308 1.7274-1.1959 2.5246Zm2.1925-5.1157-2.5247-.7973c.2658-.7973.4651-1.5945.6644-2.4582l2.5911.5979c-.1993.8637-.4651 1.7939-.7308 2.6576Zm1.1959-5.3816-2.6576-.3322c.1329-.8637.1994-1.6609.1994-2.5246l2.6575.1328c0 .8637-.0664 1.7939-.1993 2.724Zm-2.3918-5.448c-.0664-.8637-.1329-1.7274-.1993-2.5246l2.6575-.3322c.1329.9301.1993 1.8603.2658 2.7904l-2.724.0664ZM4.18564 42.5208c-.3322-.8637-.59795-1.7274-.86371-2.6575l2.52468-.6644c.19931.7972.46507 1.5945.79726 2.3918l-2.45823.9301Zm-1.52809-5.3151c-.19932-.9301-.26576-1.8603-.39864-2.724l2.65755-.2657c.13288.7972.19932 1.6609.39864 2.5246l-2.65755.4651Zm-.46508-5.5144v-.2658c0-.8637.06644-1.6609.13288-2.5246l2.65755.1993c-.06644.7973-.06644 1.5281-.06644 2.3253v.1994l-2.72399.0664Zm3.05619-5.1158-2.59111-.4651c.13287-.9301.33219-1.7938.59794-2.7239l2.59112.6643c-.3322.8637-.46507 1.7274-.59795 2.5247Zm1.26234-4.85-2.52468-.9302c.3322-.8637.66439-1.7274 1.06302-2.5911l2.3918 1.1295c-.3322.7973-.66439 1.5945-.93014 2.3918Zm2.12604-4.6507L6.31168 15.746c.46507-.7973.93014-1.5945 1.46165-2.3254l2.19248 1.5281c-.46507.6644-.93014 1.3952-1.32877 2.1261Zm2.92326-4.1192-2.05956-1.7274c.59796-.7309 1.19586-1.39526 1.86026-2.05965l1.8603 1.86025c-.5315.6644-1.1294 1.2624-1.661 1.9268Zm3.5877-3.58773-1.7274-2.0596c.7309-.59795 1.4617-1.12946 2.1925-1.66097l1.5281 2.19248c-.6644.46507-1.3288.99658-1.9932 1.52809Zm4.1857-2.92331L18.0049 4.1192c.7973-.46507 1.661-.8637 2.4582-1.26233l1.1295 2.45823c-.7973.3322-1.5281.73083-2.2589 1.12946Zm26.8412-.93014c-.7308-.39863-1.528-.73083-2.3253-.99658l.9301-2.45824c.8637.3322 1.7274.66439 2.5247 1.12946l-1.1295 2.32536ZM23.918 4.31852l-.8637-2.52467c.8637-.3322 1.7274-.59795 2.6575-.797268l.6644 2.591108c-.8637.19932-1.661.46508-2.4582.73083Zm17.4734-.59795c-.7973-.19931-1.661-.39863-2.4583-.59795l.4651-2.59111c.9301.199317 1.7938.398633 2.724.59795l-.7308 2.59111Zm-12.557-.66439-.465-2.591109c.9301-.132877 1.8602-.265755 2.7239-.332193l.1994 2.657552c-.7973 0-1.661.13288-2.4583.26575Zm7.574-.26575c-.8637-.06644-1.6609-.13288-2.5246-.13288V0c.9301 0 1.8603.0664388 2.7904.132878l-.2658 2.657552Z" fill="#F86A2E"/>
  <path d="M33.618 53.151c-7.0425 0-13.6864-3.4548-17.7391-9.235l2.1925-1.5281c3.5212 5.0494 9.3678 8.1056 15.5466 8.1056 10.4974 0 19.068-8.5706 19.068-19.068 0-1.7938-.2658-3.5877-.7309-5.3151l2.5247-.7308c.598 1.9932.8637 3.9863.8637 6.0459-.0664 11.959-9.7665 21.7255-21.7255 21.7255ZM11.959 33.2194c-.0665-.598-.0665-1.1959-.0665-1.7274 0-11.959 9.7665-21.72551 21.7255-21.72551 5.448 0 10.6302 1.99321 14.6166 5.71371l-1.7939 1.9932c-3.5212-3.1891-8.1055-4.9829-12.8227-4.9829-10.4973 0-19.0679 8.5706-19.0679 19.0679 0 .5315 0 1.063.0664 1.5281l-2.6575.1329Z" fill="#fff"/>
  <path d="M6.11237 56.4065 0 50.6928l27.9043-29.5653L38.003 29.831l14.8823-14.4172h-3.9199V7.04251h17.6727V24.7152h-8.3713v-2.8568L38.3352 41.1256l-9.833-8.4377L6.11237 56.4065Zm-2.32536-5.8466 2.19248 2.1261L28.3029 29.0337l9.9658 8.5042 22.6557-21.9912v6.4445h3.0561V9.70006H51.6894v3.05614h7.8397L38.1359 33.4187l-10.0323-8.637L3.78701 50.5599Z" fill="#F86A2E"/>
</svg>

<svg width="67" height="63" viewBox="0 0 67 63" fill="none" xmlns="http://www.w3.org/2000/svg">
<path d="M34.4153 62.8511L34.3488 60.1935C35.2125 60.1935 36.0762 60.1271 36.8735 59.9942L37.1393 62.6518C36.2091 62.7846 35.279 62.8511 34.4153 62.8511ZM31.6248 62.8511C30.6947 62.7846 29.7646 62.7182 28.8344 62.5853L29.233 59.9278C30.0967 60.0606 30.894 60.1271 31.7577 60.1935L31.6248 62.8511ZM39.8632 62.2531L39.3317 59.662C40.129 59.4627 40.9927 59.2634 41.79 59.0641L42.5208 61.5887C41.7235 61.8545 40.7934 62.0538 39.8632 62.2531ZM26.1104 61.9874C25.2467 61.7881 24.3166 61.5223 23.4529 61.1901L24.3166 58.6654C25.1138 58.9312 25.9111 59.1969 26.7748 59.3963L26.1104 61.9874ZM45.1784 60.6586L44.1818 58.2004C44.979 57.8682 45.7099 57.536 46.5071 57.1373L47.703 59.5291C46.9058 59.9942 46.0421 60.3264 45.1784 60.6586ZM20.8618 60.1935C19.9981 59.7949 19.2008 59.3963 18.4035 58.9312L19.6659 56.6058C20.3967 57.0045 21.1939 57.4031 21.9248 57.7353L20.8618 60.1935ZM50.1613 58.2004L48.766 55.9414C49.4969 55.4764 50.1613 55.0113 50.8921 54.4798L52.4866 56.6058C51.6894 57.2038 50.9585 57.7353 50.1613 58.2004ZM16.0117 57.536C15.3473 57.0709 14.6165 56.6058 14.0186 56.0743L13.8192 55.875L15.4802 53.8154L15.6795 53.9483C16.2775 54.4134 16.8754 54.8784 17.5398 55.2771L16.0117 57.536ZM54.6127 54.8784L52.8188 52.8853C53.4168 52.3538 54.0811 51.7558 54.6127 51.0914L56.5394 52.8853C55.9414 53.6161 55.277 54.2805 54.6127 54.8784ZM58.3997 50.8257L56.2736 49.1647C56.8051 48.5003 57.2702 47.8359 57.7353 47.1051L59.9942 48.5667C59.4627 49.364 58.9312 50.0948 58.3997 50.8257ZM61.3894 46.1749L59.0641 44.9126C59.4627 44.1818 59.7949 43.3845 60.1271 42.5873L62.5853 43.6503C62.2531 44.514 61.8545 45.3777 61.3894 46.1749ZM63.5819 41.0592L61.0572 40.2619C61.323 39.4646 61.5223 38.6674 61.7216 37.8037L64.3127 38.4016C64.1134 39.2653 63.8476 40.1955 63.5819 41.0592ZM64.7778 35.6776L62.1202 35.3454C62.2531 34.4817 62.3196 33.6845 62.3196 32.8208L64.9771 32.9536C64.9771 33.8173 64.9107 34.7475 64.7778 35.6776ZM62.386 30.2296C62.3196 29.3659 62.2531 28.5022 62.1867 27.705L64.8442 27.3728C64.9771 28.3029 65.0435 29.2331 65.11 30.1632L62.386 30.2296Z" fill="#F86A2E"/>
<path d="M4.18564 42.5208C3.85344 41.6571 3.58769 40.7934 3.32193 39.8633L5.84661 39.1989C6.04592 39.9961 6.31168 40.7934 6.64387 41.5907L4.18564 42.5208ZM2.65755 37.2057C2.45823 36.2756 2.39179 35.3454 2.25891 34.4817L4.91646 34.216C5.04934 35.0132 5.11578 35.8769 5.3151 36.7406L2.65755 37.2057ZM2.19247 31.6913V31.4255C2.19247 30.5618 2.25891 29.7646 2.32535 28.9009L4.9829 29.1002C4.91646 29.8975 4.91646 30.6283 4.91646 31.4255V31.6249L2.19247 31.6913ZM5.24866 26.5755L2.65755 26.1104C2.79042 25.1803 2.98974 24.3166 3.25549 23.3865L5.84661 24.0508C5.51441 24.9145 5.38154 25.7782 5.24866 26.5755ZM6.511 21.7255L3.98632 20.7953C4.31852 19.9316 4.65071 19.0679 5.04934 18.2042L7.44114 19.3337C7.10894 20.131 6.77675 20.9282 6.511 21.7255ZM8.63704 17.0748L6.31168 15.746C6.77675 14.9487 7.24182 14.1515 7.77333 13.4206L9.96581 14.9487C9.50074 15.6131 9.03567 16.3439 8.63704 17.0748ZM11.5603 12.9556L9.50074 11.2282C10.0987 10.4973 10.6966 9.83294 11.361 9.16855L13.2213 11.0288C12.6898 11.6932 12.0919 12.2912 11.5603 12.9556ZM15.148 9.36787L13.4206 7.30827C14.1515 6.71032 14.8823 6.17881 15.6131 5.6473L17.1412 7.83978C16.4768 8.30485 15.8124 8.83636 15.148 9.36787ZM19.3337 6.44456L18.0049 4.1192C18.8022 3.65413 19.6659 3.2555 20.4631 2.85687L21.5926 5.3151C20.7953 5.6473 20.0645 6.04593 19.3337 6.44456ZM46.1749 5.51442C45.4441 5.11579 44.6469 4.78359 43.8496 4.51784L44.7797 2.0596C45.6434 2.3918 46.5071 2.72399 47.3044 3.18906L46.1749 5.51442ZM23.918 4.31852L23.0543 1.79385C23.918 1.46165 24.7817 1.1959 25.7118 0.996582L26.3762 3.58769C25.5125 3.78701 24.7152 4.05277 23.918 4.31852ZM41.3914 3.72057C40.5941 3.52126 39.7304 3.32194 38.9331 3.12262L39.3982 0.53151C40.3283 0.730827 41.192 0.930143 42.1222 1.12946L41.3914 3.72057ZM28.8344 3.05618L28.3694 0.465071C29.2995 0.332194 30.2296 0.199316 31.0933 0.132878L31.2927 2.79043C30.4954 2.79043 29.6317 2.92331 28.8344 3.05618ZM36.4084 2.79043C35.5447 2.72399 34.7475 2.65755 33.8838 2.65755V0C34.8139 0 35.7441 0.0664388 36.6742 0.132878L36.4084 2.79043Z" fill="#F86A2E"/>
<path d="M33.618 53.151C26.5755 53.151 19.9316 49.6962 15.8789 43.916L18.0714 42.3879C21.5926 47.4373 27.4392 50.4935 33.618 50.4935C44.1154 50.4935 52.686 41.9229 52.686 31.4255C52.686 29.6317 52.4202 27.8378 51.9551 26.1104L54.4798 25.3796C55.0778 27.3728 55.3435 29.3659 55.3435 31.4255C55.2771 43.3845 45.577 53.151 33.618 53.151Z" fill="white"/>
<path d="M11.959 33.2194C11.8925 32.6214 11.8925 32.0235 11.8925 31.492C11.8925 19.533 21.659 9.76649 33.618 9.76649C39.066 9.76649 44.2482 11.7597 48.2346 15.4802L46.4407 17.4734C42.9195 14.2843 38.3352 12.4905 33.618 12.4905C23.1207 12.4905 14.5501 21.0611 14.5501 31.5584C14.5501 32.0899 14.5501 32.6214 14.6165 33.0865L11.959 33.2194Z" fill="white"/>
<path d="M6.11237 56.4065L0 50.6928L27.9043 21.1275L38.003 29.831L52.8853 15.4138H48.9654V7.04251H66.6381V24.7152H58.2668V21.8584L38.3352 41.1256L28.5022 32.6879L6.11237 56.4065ZM3.78701 50.5599L5.97949 52.686L28.3029 29.0337L38.2687 37.5379L60.9244 15.5467V21.9912H63.9805V9.70006H51.6894V12.7562H59.5291L38.1359 33.4187L28.1036 24.7817L3.78701 50.5599Z" fill="#F86A2E"/>
</svg>
